X:1
T:O barmherziger Gott
T:Sixtus Dietrich
T:Source : DDT 34---Leipzig---Breitkopf & Härtel---J.Wolf---1908. First print : Newe Deudsche Geistliche Gesenge---Wittemberg---G.Rhau---1544. Editor : André Vierendeels ( 22/07/17).
T:Notes : Original clefs : C1, C3, C4, F4 Original note values have been halved Editorial accidentals above the staff
T:O barmherziger Gott
T:©
T:©
C:Sixtus Dietrich
Z:©
%%score [ 1 [ 2 3 ] 4 ]
L:1/8
Q:1/4=120
M:2/2
K:C
V:1 treble nm="Soprano" snm="S"
V:2 treble-8 nm="Tenor 1" snm="T 1"
V:3 treble-8 nm="Tenor 2" snm="T 2"
V:4 bass nm="Bass" snm="B"
V:1
 B8 | c8 | G4 A4 | G4 E4 | z2 A2 B4 | c4 B2 G2- | GFGA B2 c2 | A4 G4- | G4 z2 A2- | A2 A2 B2 G2 | %10
w: O|barm-|her- zi-|ger Gott,|zu dir|_ wir ru-||* fen,|_ in|_ der Not _|
 A4 G4 | z2 G2 A2 B2 | c4 B2 G2 | A4 G2 A2 | B2 G4 E2 | F2 G4 F2 | G8 | z4 G4 | G4 G4 | %19
w: _ _|mit Zu- ver-|scicht, du wer-|||* * dest|nicht|un-|ser Ge-|
 F3 E D2 d2 | B2 c2 A2 B2 | BA G4 F2 | G4 z2 E2- | EF G2 A2 B2 | c2 G2 A4 | G4 E2 B2 | c2 G2 A4 | %27
w: bet _ _ [ver-|ach- ten, das aus|Her- * * zen|geht, das|_ _ aus Her- *|* * zen|geht,] das aus|Her- * *|
 G4 E4- | E8 |] %29
w: zen geht.|_|
V:2
 z4 e4- | e4 f4 | e4 c2 d2 | e8 | A4 z2 e2- | e2 f2 g2 e2- | e2 dc B2 e2- | e2 d2 e4 | %8
w: O|_ barm-|her- * zi-|ger|Gott, zu|_ dir wir [ru-||* * fen,|
 z2 d2 e2 f2- | fe c2 d2 e2 | c2 d2 G4- | G4 z4 | z2 c2 d2 e2 | f4 e2 c2 | d4 c4 | d2 e2 d4 | B8 | %17
w: wir] ru- *|* * * * fen|in der Not|_|mit Zu- ver-|sicht, du wer-||* * dest|nicht|
 z4 G4 | B6 c2 | dcde f4 | e4 z2 d2- | d2 e2 c4 | d4 e2 g2- | gfed c2 B2 | A2 G2 c3 d | e2 c4 B2 | %26
w: un-|ser Ge-|bet _ _ _ _|_ ver-|* ach- ten,|das aus Her-||* zen geht, _|_ das aus|
 A2 G2 c2 A2 | B4 c4 | B8 |] %29
w: Her- * * *|* zen|geht.|
V:3
 z8 | z8 | z8 | B4 c4- | c4 G4 | A4 G4 | E8 | z4 B4 | B4 B2 d2- | d2 c2 B4 | A4 B4- | B4 z2 G2 | %12
w: |||O barm-|* her-|zi- ger|Gott,|zu|dir wir ru|_ fen in|der Not|_ mit|
 A4 B4 | c8 | B4 G4 | A8 | G8 | z4 E4 | E4 E4 | D8 | z4 D4 | G4 A4 | B4 A2 G2 | c3 B A2 G2 | %24
w: Zu- ver-|sicht,|du wer-|dest|nicht|un-|ser Ge-|bet|ver-|ach- ten,|das aus _|Her- * * *|
 A2 E2 F4 | E8- | E8- | E8- | E8 |] %29
w: * * zen|geht.|_|||
V:4
 z8 | z8 | z8 | E,8 | F,4 E,4 | C,2 D,2 E,4 | z2 G,2 G,2 E,2 | F,4 E,4 | G,3 F, E,2 D,E, | %9
w: |||O|barm- her-|zi- ger Gott,|zu dir wir|ru- fen|in _ _ _ _|
 F,G, A,2 G,2 E,2 | F,4 z2 E,2 | E,3 D, C,2 B,,2 | A,,4 G,,2 G,2 | F,G,A,B, C2 A,2 | G,4 C,2 E,2 | %15
w: _ _ _ _ der|Not mit|Zu- * * ver-|sicht, du wer-|||
 D,2 C,2 D,4 | G,,8 | z4 C,4 | G,4 G,4 | A,3 G, F,2 D,2 | E,2 C,2 D,2 B,,2- | B,,2 C,2 A,,4 | %22
w: * * dest|nicht|un-|ser Ge-|bet _ _ _|_ _ _ ver-|* * ach-|
 G,,4 z2 C,2- | C,D, E,2 A,,2 E,2 | A,,2 C,2 F,,4 | z2 C,3 D, E,2 | A,,2 E,2 A,,4 | E,8- | E,8 |] %29
w: ten, das|_ _ [aus Her- *|* zen geht,]|aus _ _|Her- * zen|geht.|_|

